X:1
T:I Know Where I'm Going
M:2/4
L:1/8
K:G
 GG AB| G G2 D| BB Bc| B A3| dd dd| d- G2 G/2G/2| AB cB| A A3|
